brandFactory_export/2.Regular/Ubicacion mapa _2Regular.svg

<?xml version="1.0" encoding="UTF-8"?>
<svg width="24px" height="24px" viewBox="0 0 24 24" version="1.1" xmlns="http://www.w3.org/2000/svg" xmlns:xlink="http://www.w3.org/1999/xlink">
    <title>2.Regular/Ubicacion mapa _2Regular</title>
    <g id="Symbols" stroke="none" stroke-width="1" fill="none" fill-rule="evenodd">
        <g id="2.Regular/Ubicacion-mapa-_2Regular" fill="#5CB615" fill-rule="nonzero">
            <path d="M18.2554622,20.0605042 L21.7815126,21.6134454 L19.6907563,14.302521 L17.4554622,15.4184874 L18.2554622,20.0605042 L18.2554622,20.0605042 Z M4.17815126,14.3361345 L1.88907563,21.6033613 L5.39159664,20.0806723 L5.9394958,15.3310924 L4.17815126,14.3361345 L4.17815126,14.3361345 Z M11.112605,19.4521008 C10.4470588,18.7394958 9.21008403,17.1966387 7.98655462,15.3277311 L7.36806723,15.5092437 L6.84369748,20.1042017 L11.0957983,21.8487395 L11.112605,19.4521008 Z M11.8218487,1.44537815 C8.14789916,1.44537815 6.1210084,3.47226891 6.10754342,7.15630252 C6.09747899,10.4134454 9.97983193,15.9495798 11.805042,18.0672269 C13.4857143,16.1042017 17.5495798,10.5983193 17.5597013,7.18991597 C17.5697479,3.49579832 15.5428571,1.45546218 11.8521008,1.44537815 L11.8218487,1.44537815 Z M12.5579832,19.394958 L12.5411765,21.8285714 L16.8,20.1243697 L16.0201681,15.5731092 L15.5831933,15.4352941 C14.3529412,17.2672269 13.1294118,18.7596639 12.5579832,19.394958 L12.5579832,19.394958 Z M23.5966387,22.702521 C23.6739496,22.9714286 23.5865546,23.2605042 23.3781513,23.4453782 C23.2436975,23.5630252 23.0722689,23.6235294 22.9008403,23.6235294 C22.8033613,23.6235294 22.702521,23.6033613 22.6084034,23.5630252 L17.6067227,21.3579832 L12.0806723,23.5731092 C11.9394958,23.6302521 11.7915966,23.6403361 11.6436975,23.6033613 L11.5092437,23.5731092 C11.4722689,23.5630252 11.4352941,23.5529412 11.4016807,23.5394958 L6.08739496,21.3613445 L1.01176471,23.5663866 C0.752941176,23.6773109 0.450420168,23.6302521 0.238655462,23.4420168 C0.0302521008,23.2504202 -0.0504201681,22.9579832 0.0336134454,22.6857143 L3.06554622,13.0554622 C3.13277311,12.8470588 3.28739496,12.6823529 3.48907563,12.6016807 C3.69411765,12.5210084 3.92268908,12.5378151 4.11092437,12.6453782 L6.80336134,14.1680672 L7.18991597,14.0571429 C5.81848739,11.7546218 4.65546218,9.18319328 4.66218487,7.15966387 C4.67563025,2.6789916 7.3512605,0.00672268908 11.8252101,0.00672268908 L11.8588235,0.00672268908 C16.3495798,0.0201680672 19.0218487,2.7092437 19.0084034,7.20336134 C19.0016807,9.31092437 17.7915966,11.8991597 16.3932773,14.1781513 L16.594958,14.2420168 L19.8285714,12.6285714 C20.0201681,12.5344538 20.2453782,12.5277311 20.4436975,12.6151261 C20.6420168,12.702521 20.789916,12.8705882 20.8470588,13.0789916 L23.5966387,22.702521 Z M10.5176471,6.76302521 C10.5176471,7.6605042 10.9344538,8.07731092 11.8319328,8.07731092 C12.7294118,8.07731092 13.1495798,7.6605042 13.1495798,6.76302521 C13.1495798,5.86554622 12.7294118,5.44537815 11.8319328,5.44537815 C10.9378151,5.44537815 10.5176471,5.86218487 10.5176471,6.76302521 Z M14.5983193,6.76302521 C14.5983193,8.46722689 13.5394958,9.52605042 11.8352941,9.52605042 C10.1310924,9.52605042 9.07226891,8.46722689 9.07226891,6.76302521 C9.07226891,5.05882353 10.1310924,4 11.8352941,4 C13.5394958,4 14.5983193,5.05882353 14.5983193,6.76302521 Z" id="Ubicacion-mapa-_2Regular"></path>
        </g>
    </g>
</svg>

<svg width="24" height="24" viewBox="0 0 24 24" xmlns="http://www.w3.org/2000/svg"><path d="M18.255 20.06l3.527 1.553-2.091-7.31-2.236 1.115.8 4.643zM4.178 14.337L1.89 21.603l3.503-1.522.547-4.75-1.76-.995zm6.935 5.116c-.666-.713-1.903-2.255-3.126-4.124l-.619.181-.524 4.595 4.252 1.745.017-2.397zm.709-18.007c-3.674 0-5.701 2.027-5.714 5.711-.01 3.257 3.872 8.794 5.697 10.911 1.68-1.963 5.745-7.469 5.755-10.877.01-3.694-2.017-5.735-5.708-5.745h-.03zm.736 17.95l-.017 2.434 4.259-1.705-.78-4.55-.437-.139c-1.23 1.832-2.454 3.325-3.025 3.96zm11.039 3.308a.727.727 0 01-.219.742.726.726 0 01-.77.118l-5.001-2.205-5.526 2.215a.695.695 0 01-.437.03l-.135-.03c-.037-.01-.074-.02-.107-.034l-5.315-2.178-5.075 2.205a.732.732 0 01-.773-.124.732.732 0 01-.205-.756l3.032-9.63a.721.721 0 011.045-.41l2.692 1.522.387-.11C5.818 11.754 4.655 9.182 4.662 7.16 4.676 2.679 7.352.007 11.825.007h.034c4.49.013 7.163 2.702 7.15 7.196-.007 2.108-1.217 4.696-2.616 6.975l.202.064 3.234-1.613a.729.729 0 01.615-.014.712.712 0 01.403.464l2.75 9.624zm-13.08-15.94c0 .898.417 1.314 1.315 1.314.897 0 1.318-.416 1.318-1.314 0-.897-.42-1.318-1.318-1.318-.894 0-1.314.417-1.314 1.318zm4.081 0c0 1.704-1.059 2.763-2.763 2.763S9.072 8.467 9.072 6.763 10.132 4 11.835 4c1.704 0 2.763 1.059 2.763 2.763z" fill="#5CB615" fill-rule="nonzero"/></svg>
